packages/core/src/svgs/gleec.svg

<svg width="24" height="24" viewBox="0 0 24 24" fill="none" xmlns="http://www.w3.org/2000/svg">
<g clip-path="url(#clip0_31_10829)">
<path d="M0 0H24V24H0V0Z" fill="#843AF9"/>
<path d="M10.7143 3.85693H13.2857V5.99979C15.2143 5.99979 17.3614 7.20536 17.8697 9.42836H15.5314C15.0866 8.29136 14.0584 8.14265 12.7997 8.14265L11.1994 8.13279C9.54257 8.13279 8.14243 9.12322 8.14243 10.8366V13.1629C8.14286 14.8764 9.59314 15.8569 11.25 15.8569H12.75C14.4069 15.8569 15.75 14.5704 15.75 12.8569H9.42857V10.7141H18V13.1629C18 15.9469 15.75 17.9998 13.2857 17.9998V20.1426H10.7143V17.9998C8.14286 17.9998 6 15.9469 6 13.1629V10.8366C6 8.05265 8.14286 5.99979 10.7143 5.99979V3.85693Z" fill="white"/>
</g>
<defs>
<clipPath id="clip0_31_10829">
<rect width="24" height="24" fill="white"/>
</clipPath>
</defs>
</svg>

<svg xmlns="http://www.w3.org/2000/svg" width="24" height="24" fill="none" viewBox="0 0 24 24"><g clip-path="url(#a)"><path fill="#843AF9" d="M0 0h24v24H0z"/><path fill="#fff" d="M10.714 3.857h2.572V6c1.928 0 4.075 1.205 4.584 3.428H15.53c-.444-1.137-1.473-1.285-2.731-1.285l-1.6-.01c-1.657 0-3.058.99-3.058 2.704v2.326c0 1.713 1.451 2.694 3.108 2.694h1.5c1.657 0 3-1.287 3-3H9.429v-2.143H18v2.449C18 15.947 15.75 18 13.286 18v2.143h-2.572V18C8.143 18 6 15.947 6 13.163v-2.326C6 8.053 8.143 6 10.714 6z"/></g><defs><clipPath id="a"><path fill="#fff" d="M0 0h24v24H0z"/></clipPath></defs></svg>
